X: 15
T: Fanny Frail
M: C
R: march
N: Tune for the Evesham stick dance, a morris dance in the Welsh Border tradition.
S: http://lesters-tune-a-day.blogspot.co.uk/2012/11/tune-87-fanny-frail.html
L: 1/8
K: D
|:\
F2A2 G2B2 | A2de f2d2 | g2f2 e2d2 | c2B2 ABAG |\
F2A2 G2B2 | A2de f2d2 | gfed cABc | d2d2 d4 :|
|:\
e2AA e2AA | g2f2 ecAA | g2f2 e2d2 | c2B2 ABAG |\
F2A2 G2B2 | A2de f2d2 | gfed cABc | d2d2 d4 :|


